X:1
T:013 - Adoração a Deus
T:Letra: Henry Francis Lyte (1793-1847)
T:Trad.: William Edwin Entzminger (1859-1930)
T:Música: Henry John Gauntlett (1805-1876)
M: 3/4
L: 1/8
Q:1/4=115
K:G
V:1
D2 | "G"B2G2 "C"E2 | "G"D4 D2 |B2G2 "C"E2 | "G"D4 G2 |"Am7"c2c2 "D"A2 | "G"d4B2 | "A/D"A2F2 "A7"E2 | "D"D4A2 |"G"F2G2B2 |"D"B2A2B2|"C"c2d2e2| "G"d4d2|"Am"d2c2c2| "G"c2B2B2|"D"A2G2F2| "G"G4|]
w: Ben-di-gam a Deus, glo-rio-so Se-nhor, E com gra-ti-dão lhe ren-dam lou-vor: A-mi-go dos ho-mens, fi-el de-fen-sor, Queos guar-da se-gu-ros no seu am-ploa-mor.          
W:
W:
W: Bendigam a Deus, glorioso Senhor,
W: E com gratidão lhe rendam louvor:
W: Amigo dos homens, fiel defensor,
W: Que os guarda seguros no seu amplo amor.
W:         
W:





%wordsfont Times-Roman 13.0
%vocalfont Times-Roman 13.0
